X:109
T:Long Marsh Reel
R:reel
C:Bruce Osborne  --  Dec. 1992
Z:abc by bosborne@kos.net
M:2/4
L:1/8
K:F
a/g/|fc/f/ A/f/c/f/|d/c/B/G/ DD/F/|E/F/E/D/ C/E/G/E/|F/E/F/G/ Aa/g/|\
fc/f/ A/f/c/f/|d/c/B/G/ DD/F/|E/F/E/D/ C/E/G/E/|F/G/F/E/ F:|
|:c|a/^g/a/^g/ f=g|f/g/f/d/ cA/B/|cg/f/ g/f/e/g/|f/e/f/g/ aA/B/|\
ca/^g/ a/^g/f/=g/|f/g/f/d/ cA/B/|cg/f/ g/f/e/g/|f/e/f/g/ f:|
